src/pos-icons/chart-ppf.svg

<svg height="24" viewBox="0 0 24 24" width="24" xmlns="http://www.w3.org/2000/svg"><path d="m5 6v2c3.2 0 6.36 1.18 8.57 3.15 2.07 1.85 3.26 4.35 3.43 6.85h1.97a14 12.5 0 0 0 -13.97-12m17 15h-20v-18h2v16h18z"/></svg>

<?xml version="1.0" encoding="UTF-8"?><!DOCTYPE svg PUBLIC "-//W3C//DTD SVG 1.1//EN" "http://www.w3.org/Graphics/SVG/1.1/DTD/svg11.dtd"><svg xmlns="http://www.w3.org/2000/svg" xmlns:xlink="http://www.w3.org/1999/xlink" version="1.1" id="mdi-chart-ppf" width="24" height="24" viewBox="0 0 24 24"><path d="M5 6V8C8.2 8 11.36 9.18 13.57 11.15C15.64 13 16.83 15.5 17 18H18.97A14 12.5 0 0 0 5 6M22 21H2V3H4V19H22Z" /></svg>
